project6/data/cube.ti1
CTI1   

DESCRIPTOR "Argyll Calibration Target chart information 1"
ORIGINATOR "Argyll targen"
CREATED "Wed Oct 30 19:18:22 2013"
KEYWORD "APPROX_WHITE_POINT"
APPROX_WHITE_POINT "95.106486 100.000000 108.844025"
KEYWORD "COLOR_REP"
COLOR_REP "RGB"
KEYWORD "MULTI_DIM_STEPS"
MULTI_DIM_STEPS "5"

NUMBER_OF_FIELDS 7
BEGIN_DATA_FORMAT
SAMPLE_ID RGB_R RGB_G RGB_B XYZ_X XYZ_Y XYZ_Z 
END_DATA_FORMAT

NUMBER_OF_SETS 125
BEGIN_DATA
1 0.00000 0.00000 0.00000 1.00000 1.00000 1.00000 
2 25.0000 0.00000 0.00000 3.07728 2.07105 1.09734 
3 50.0000 0.00000 0.00000 9.73934 5.50603 1.40951 
4 75.0000 0.00000 0.00000 22.3346 12.0002 1.99970 
5 100.000 0.00000 0.00000 41.8302 22.0522 2.91323 
6 100.000 75.0000 100.000 78.2013 66.1943 103.209 
7 0.00000 25.0000 0.00000 2.80128 4.60205 1.60043 
8 50.0000 25.0000 0.00000 11.5406 9.10808 2.00994 
9 75.0000 25.0000 0.00000 24.1359 15.6023 2.60014 
10 100.000 25.0000 0.00000 43.6314 25.6542 3.51366 
11 100.000 50.0000 25.0000 50.3176 37.5700 10.2282 
12 25.0000 50.0000 0.00000 10.6555 17.2253 3.62342 
13 50.0000 50.0000 0.00000 17.3175 20.6603 3.93559 
14 75.0000 50.0000 0.00000 29.9128 27.1544 4.52578 
15 100.000 50.0000 0.00000 49.4083 37.2064 5.43931 
16 100.000 75.0000 25.0000 61.2394 59.4106 13.8689 
17 0.00000 50.0000 0.00000 8.57817 16.1542 3.52608 
18 50.0000 75.0000 0.00000 28.2393 42.5008 7.57622 
19 75.0000 75.0000 0.00000 40.8346 48.9950 8.16642 
20 100.000 75.0000 0.00000 60.3302 59.0470 9.07994 
21 25.0000 75.0000 0.00000 21.5773 39.0658 7.26405 
22 25.0000 100.000 0.00000 38.4825 72.8716 12.8992 
23 50.0000 100.000 0.00000 45.1445 76.3065 13.2113 
24 75.0000 100.000 0.00000 57.7399 82.8007 13.8015 
25 100.000 100.000 0.00000 77.2354 92.8527 14.7151 
26 0.00000 0.00000 25.0000 1.90921 1.36363 5.78891 
27 25.0000 0.00000 25.0000 3.98649 2.43468 5.88625 
28 50.0000 0.00000 25.0000 10.6485 5.86966 6.19842 
29 75.0000 0.00000 25.0000 23.2439 12.3638 6.78862 
30 100.000 0.00000 25.0000 42.7394 22.4158 7.70214 
31 100.000 0.00000 75.0000 51.1682 25.7868 52.0976 
32 75.0000 50.0000 75.0000 39.2509 30.8891 53.7102 
33 50.0000 25.0000 25.0000 12.4498 9.47171 6.79885 
34 75.0000 25.0000 25.0000 25.0451 15.9659 7.38905 
35 100.000 25.0000 25.0000 44.5407 26.0178 8.30257 
36 100.000 75.0000 50.0000 64.1553 60.5768 29.2274 
37 100.000 75.0000 75.0000 69.6682 62.7816 58.2644 
38 50.0000 50.0000 25.0000 18.2267 21.0239 8.72450 
39 75.0000 50.0000 25.0000 30.8220 27.5181 9.31470 
40 25.0000 25.0000 0.00000 4.87856 5.67311 1.69777 
41 25.0000 50.0000 25.0000 11.5647 17.5889 8.41233 
42 25.0000 75.0000 25.0000 22.4865 39.4295 12.0530 
43 50.0000 75.0000 25.0000 29.1485 42.8645 12.3651 
44 75.0000 75.0000 25.0000 41.7438 49.3586 12.9553 
45 75.0000 75.0000 50.0000 44.6598 50.5248 28.3139 
46 0.00000 100.000 0.00000 36.4052 71.8005 12.8018 
47 25.0000 100.000 25.0000 39.3917 73.2352 17.6881 
48 50.0000 100.000 25.0000 46.0538 76.6702 18.0003 
49 75.0000 100.000 25.0000 58.6491 83.1644 18.5905 
50 100.000 100.000 25.0000 78.1446 93.2163 19.5040 
51 100.000 100.000 50.0000 81.0605 94.3825 34.8625 
52 25.0000 0.00000 50.0000 6.90243 3.60087 21.2448 
53 50.0000 0.00000 50.0000 13.5645 7.03585 21.5570 
54 75.0000 0.00000 50.0000 26.1598 13.5300 22.1472 
55 100.000 0.00000 50.0000 45.6553 23.5820 23.0607 
56 100.000 0.00000 100.000 59.7013 29.1995 97.0422 
57 100.000 50.0000 100.000 67.2794 44.3537 99.5683 
58 50.0000 25.0000 50.0000 15.3658 10.6379 22.1574 
59 75.0000 25.0000 50.0000 27.9611 17.1321 22.7476 
60 100.000 25.0000 50.0000 47.4566 27.1840 23.6611 
61 100.000 25.0000 100.000 61.5026 32.8015 97.6426 
62 25.0000 50.0000 50.0000 14.4806 18.7551 23.7709 
63 50.0000 50.0000 50.0000 21.1427 22.1901 24.0831 
64 75.0000 50.0000 50.0000 33.7380 28.6843 24.6733 
65 100.000 50.0000 50.0000 53.2335 38.7362 25.5868 
66 100.000 50.0000 75.0000 58.7464 40.9410 54.6237 
67 25.0000 75.0000 50.0000 25.4024 40.5957 27.4115 
68 50.0000 75.0000 50.0000 32.0645 44.0306 27.7237 
69 0.00000 75.0000 0.00000 19.5000 37.9948 7.16671 
70 0.00000 75.0000 25.0000 20.4092 38.3584 11.9556 
71 0.00000 100.000 25.0000 37.3144 72.1641 17.5907 
72 0.00000 100.000 50.0000 40.2304 73.3303 32.9493 
73 50.0000 100.000 50.0000 48.9697 77.8364 33.3588 
74 75.0000 100.000 50.0000 61.5650 84.3305 33.9490 
75 0.00000 0.00000 50.0000 4.82515 2.52982 21.1475 
76 0.00000 0.00000 75.0000 10.3380 4.73463 50.1844 
77 25.0000 0.00000 75.0000 12.4153 5.80568 50.2817 
78 50.0000 0.00000 75.0000 19.0774 9.24066 50.5939 
79 75.0000 0.00000 75.0000 31.6727 15.7348 51.1841 
80 25.0000 25.0000 25.0000 5.78777 6.03673 6.48668 
81 25.0000 25.0000 50.0000 8.70371 7.20292 21.8452 
82 25.0000 25.0000 75.0000 14.2166 9.40773 50.8822 
83 50.0000 25.0000 75.0000 20.8787 12.8427 51.1944 
84 75.0000 25.0000 75.0000 33.4740 19.3369 51.7845 
85 100.000 25.0000 75.0000 52.9695 29.3888 52.6981 
86 0.00000 25.0000 25.0000 3.71049 4.96568 6.38934 
87 0.00000 50.0000 25.0000 9.48738 16.5179 8.31499 
88 50.0000 50.0000 75.0000 26.6555 24.3949 53.1200 
89 50.0000 50.0000 100.000 35.1886 27.8076 98.0645 
90 50.0000 75.0000 100.000 46.1104 49.6481 101.705 
91 25.0000 50.0000 75.0000 19.9935 20.9599 52.8078 
92 25.0000 75.0000 75.0000 30.9153 42.8005 56.4485 
93 50.0000 75.0000 75.0000 37.5774 46.2355 56.7606 
94 75.0000 75.0000 75.0000 50.1727 52.7296 57.3508 
95 75.0000 75.0000 100.000 58.7057 56.1423 102.295 
96 25.0000 100.000 50.0000 42.3076 74.4014 33.0466 
97 25.0000 100.000 75.0000 47.8205 76.6062 62.0836 
98 50.0000 100.000 75.0000 54.4826 80.0412 62.3958 
99 75.0000 100.000 75.0000 67.0779 86.5354 62.9859 
100 100.000 100.000 75.0000 86.5734 96.5873 63.8995 
101 0.00000 0.00000 100.000 18.8711 8.14731 95.1290 
102 25.0000 0.00000 100.000 20.9484 9.21837 95.2263 
103 50.0000 0.00000 100.000 27.6104 12.6533 95.5385 
104 75.0000 0.00000 100.000 40.2058 19.1475 96.1287 
105 75.0000 50.0000 100.000 47.7839 34.3017 98.6547 
106 0.00000 25.0000 100.000 20.6724 11.7494 95.7294 
107 25.0000 25.0000 100.000 22.7497 12.8204 95.8267 
108 50.0000 25.0000 100.000 29.4117 16.2554 96.1389 
109 75.0000 25.0000 100.000 42.0070 22.7496 96.7291 
110 0.00000 50.0000 75.0000 17.9162 19.8888 52.7105 
111 0.00000 50.0000 100.000 26.4493 23.3015 97.6550 
112 25.0000 50.0000 100.000 28.5266 24.3726 97.7524 
113 0.00000 25.0000 50.0000 6.62643 6.13187 21.7479 
114 0.00000 25.0000 75.0000 12.1393 8.33668 50.7848 
115 0.00000 75.0000 75.0000 28.8380 41.7294 56.3511 
116 0.00000 75.0000 100.000 37.3711 45.1421 101.296 
117 25.0000 75.0000 100.000 39.4484 46.2132 101.393 
118 0.00000 50.0000 50.0000 12.4033 17.6840 23.6735 
119 0.00000 75.0000 50.0000 23.3251 39.5246 27.3142 
120 0.00000 100.000 75.0000 45.7432 75.5351 61.9862 
121 0.00000 100.000 100.000 54.2763 78.9478 106.931 
122 25.0000 100.000 100.000 56.3536 80.0189 107.028 
123 50.0000 100.000 100.000 63.0157 83.4539 107.340 
124 75.0000 100.000 100.000 75.6110 89.9480 107.930 
125 100.000 100.000 100.000 95.1065 100.000 108.844 
END_DATA
CTI1   

DESCRIPTOR "Argyll Calibration Target chart information 1"
ORIGINATOR "Argyll targen"
KEYWORD "DENSITY_EXTREME_VALUES"
DENSITY_EXTREME_VALUES "8"
CREATED "October 30, 2013"

KEYWORD "INDEX"
NUMBER_OF_FIELDS 7
BEGIN_DATA_FORMAT
INDEX RGB_R RGB_G RGB_B XYZ_X XYZ_Y XYZ_Z 
END_DATA_FORMAT

NUMBER_OF_SETS 8
BEGIN_DATA
0 100.000 100.000 100.000 95.1065 100.000 108.844 
1 0.00000 47.3607 100.000 25.6130 21.6292 97.3763 
2 100.000 0.00000 79.3514 52.4258 26.2898 58.7215 
3 0.00000 0.00000 58.9971 6.48583 3.19399 29.8944 
4 100.000 66.6593 0.00000 56.0588 50.5054 7.65614 
5 0.00000 35.6011 0.00000 4.68562 8.37021 2.22855 
6 84.4444 0.00000 0.00000 28.8428 15.3558 2.30466 
7 0.00000 0.00000 0.00000 1.00000 1.00000 1.00000 
END_DATA
CTI1   

DESCRIPTOR "Argyll Calibration Target chart information 1"
ORIGINATOR "Argyll targen"
KEYWORD "DEVICE_COMBINATION_VALUES"
DEVICE_COMBINATION_VALUES "9"
CREATED "October 30, 2013"

KEYWORD "INDEX"
NUMBER_OF_FIELDS 7
BEGIN_DATA_FORMAT
INDEX RGB_R RGB_G RGB_B XYZ_X XYZ_Y XYZ_Z 
END_DATA_FORMAT

NUMBER_OF_SETS 9
BEGIN_DATA
0 100.000 100.000 100.000 95.1065 100.000 108.844 
1 0.00000 100.000 100.000 54.2763 78.9478 106.931 
2 100.000 0.00000 100.000 59.7013 29.1995 97.0422 
3 0.00000 0.00000 100.000 18.8711 8.14731 95.1290 
4 100.000 100.000 0.00000 77.2354 92.8527 14.7151 
5 0.00000 100.000 0.00000 36.4052 71.8005 12.8018 
6 100.000 0.00000 0.00000 41.8302 22.0522 2.91323 
7 0.00000 0.00000 0.00000 1.00000 1.00000 1.00000 
8 50.0000 50.0000 50.0000 21.1427 22.1901 24.0831 
END_DATA
