project6/data/cube.ti3
CTI3   

DESCRIPTOR "Argyll Calibration Target chart information 3"
ORIGINATOR "Argyll dispread"
CREATED "Thu Apr  7 15:23:17 2016"
DEVICE_CLASS "DISPLAY"
MULTI_DIM_STEPS "5"
COLOR_REP "RGB_XYZ"
TARGET_INSTRUMENT "X-Rite ColorMunki"
DISPLAY_TYPE_REFRESH "YES"
INSTRUMENT_TYPE_SPECTRAL "YES"
LUMINANCE_XYZ_CDM2 "355.267455 367.404417 434.978525"
NORMALIZED_TO_Y_100 "YES"

NUMBER_OF_FIELDS 7
BEGIN_DATA_FORMAT
SAMPLE_ID RGB_R RGB_G RGB_B XYZ_X XYZ_Y XYZ_Z 
END_DATA_FORMAT

NUMBER_OF_SETS 125
BEGIN_DATA
1 0.00000 0.00000 0.00000 0.122042 0.109357 0.245997 
2 25.00000 0.00000 0.00000 1.769999 0.950235 0.317025 
3 50.00000 0.00000 0.00000 7.837664 4.050534 0.608958 
4 75.00000 0.00000 0.00000 19.39841 9.954316 1.140971 
5 100.0000 0.00000 0.00000 37.84714 19.37312 2.021883 
6 100.0000 75.00000 100.0000 78.44234 64.75739 113.0718 
7 0.00000 25.00000 0.00000 2.025963 3.808646 0.757047 
8 50.00000 25.00000 0.00000 10.00640 7.926629 1.123394 
9 75.00000 25.00000 0.00000 21.42869 13.77644 1.659338 
10 100.0000 25.00000 0.00000 39.85724 23.22514 2.536449 
11 100.0000 50.00000 25.00000 47.38853 36.10622 9.691213 
12 25.00000 50.00000 0.00000 10.20473 17.06096 2.469959 
13 50.00000 50.00000 0.00000 16.32962 20.21643 2.745076 
14 75.00000 50.00000 0.00000 27.78273 26.10935 3.283476 
15 100.0000 50.00000 0.00000 46.25289 35.65152 4.186178 
16 100.0000 75.00000 25.00000 59.07342 58.84065 12.73422 
17 0.00000 50.00000 0.00000 8.267850 15.97673 2.365325 
18 50.00000 75.00000 0.00000 28.01859 42.94183 5.779486 
19 75.00000 75.00000 0.00000 39.45191 48.81619 6.281368 
20 100.0000 75.00000 0.00000 57.91946 58.36423 7.190265 
21 25.00000 75.00000 0.00000 21.84641 39.74510 5.475521 
22 25.00000 100.0000 0.00000 40.01333 75.17741 10.33530 
23 50.00000 100.0000 0.00000 46.20033 78.33728 10.61555 
24 75.00000 100.0000 0.00000 57.64125 84.18171 11.12813 
25 100.0000 100.0000 0.00000 75.97635 93.57671 11.99175 
26 0.00000 0.00000 25.00000 1.130264 0.418178 5.480407 
27 25.00000 0.00000 25.00000 3.003512 1.372026 5.630052 
28 50.00000 0.00000 25.00000 9.104893 4.485207 5.931634 
29 75.00000 0.00000 25.00000 20.51940 10.31010 6.474273 
30 100.0000 0.00000 25.00000 38.96390 19.72782 7.433201 
31 100.0000 0.00000 75.00000 48.65296 22.60952 57.98200 
32 75.00000 50.00000 75.00000 38.78787 29.63668 59.33589 
33 50.00000 25.00000 25.00000 11.12317 8.320531 6.488347 
34 75.00000 25.00000 25.00000 22.56293 14.17082 7.034721 
35 100.0000 25.00000 25.00000 41.01688 23.63952 8.015526 
36 100.0000 75.00000 50.00000 62.61374 59.98696 30.76257 
37 100.0000 75.00000 75.00000 68.93334 61.91732 63.55986 
38 50.00000 50.00000 25.00000 17.50328 20.70534 8.151034 
39 75.00000 50.00000 25.00000 28.97672 26.60151 8.706421 
40 25.00000 25.00000 0.00000 3.911545 4.806398 0.844257 
41 25.00000 50.00000 25.00000 11.32133 17.51479 7.845279 
42 25.00000 75.00000 25.00000 22.99098 40.24705 10.88245 
43 50.00000 75.00000 25.00000 29.21002 43.46159 11.20186 
44 75.00000 75.00000 25.00000 40.69338 49.36487 11.76604 
45 75.00000 75.00000 50.00000 44.20432 50.49119 29.70188 
46 0.00000 100.0000 0.00000 38.11679 74.24725 10.26162 
47 25.00000 100.0000 25.00000 41.15338 75.64159 15.83883 
48 50.00000 100.0000 25.00000 47.40180 78.83240 16.14072 
49 75.00000 100.0000 25.00000 58.87297 84.68472 16.68773 
50 100.0000 100.0000 25.00000 77.19390 94.06759 17.62823 
51 100.0000 100.0000 50.00000 80.69104 95.12298 35.83230 
52 25.00000 0.00000 50.00000 6.378701 2.377609 23.25656 
53 50.00000 0.00000 50.00000 12.51917 5.512234 23.60748 
54 75.00000 0.00000 50.00000 23.95971 11.34772 24.18995 
55 100.0000 0.00000 50.00000 42.42693 20.77158 25.28727 
56 100.0000 0.00000 100.0000 58.30747 25.40765 107.9728 
57 100.0000 50.00000 100.0000 66.91388 42.09978 110.2591 
58 50.00000 25.00000 50.00000 14.57815 9.384862 24.27850 
59 75.00000 25.00000 50.00000 26.04162 15.24406 24.87099 
60 100.0000 25.00000 50.00000 44.49924 24.70343 25.97929 
61 100.0000 25.00000 100.0000 60.39953 29.41414 108.5753 
62 25.00000 50.00000 50.00000 14.76315 18.60328 25.62234 
63 50.00000 50.00000 50.00000 20.96629 21.79552 25.96615 
64 75.00000 50.00000 50.00000 32.47192 27.71194 26.58385 
65 100.0000 50.00000 50.00000 50.98181 37.27483 27.71028 
66 100.0000 50.00000 75.00000 57.29558 39.19774 60.53575 
67 25.00000 75.00000 50.00000 26.46137 41.36308 28.73309 
68 50.00000 75.00000 50.00000 32.71955 44.60371 29.11950 
69 0.00000 75.00000 0.00000 19.93829 38.72023 5.388879 
70 0.00000 75.00000 25.00000 21.01606 39.15834 10.71931 
71 0.00000 100.0000 25.00000 39.19077 74.62995 15.69424 
72 0.00000 100.0000 50.00000 42.62118 75.66503 33.58628 
73 50.00000 100.0000 50.00000 50.89565 79.90805 34.20378 
74 75.00000 100.0000 50.00000 62.38446 85.77371 34.78015 
75 0.00000 0.00000 50.00000 4.486967 1.421690 23.01604 
76 0.00000 0.00000 75.00000 10.75035 3.281002 55.76674 
77 25.00000 0.00000 75.00000 12.66667 4.247897 56.03400 
78 50.00000 0.00000 75.00000 18.83016 7.388374 56.40550 
79 75.00000 0.00000 75.00000 30.30562 13.24522 57.01620 
80 25.00000 25.00000 25.00000 4.976466 5.171399 6.181066 
81 25.00000 25.00000 50.00000 8.394893 6.214844 23.93733 
82 25.00000 25.00000 75.00000 14.69616 8.105661 56.73839 
83 50.00000 25.00000 75.00000 20.92231 11.29772 57.12841 
84 75.00000 25.00000 75.00000 32.38823 17.15523 57.71462 
85 100.0000 25.00000 75.00000 50.81602 26.59956 58.81521 
86 0.00000 25.00000 25.00000 3.065554 4.170475 6.041880 
87 0.00000 50.00000 25.00000 9.372200 16.45685 7.694929 
88 50.00000 50.00000 75.00000 27.35445 23.77774 58.84580 
89 50.00000 50.00000 100.0000 37.06966 26.73415 108.8333 
90 50.00000 75.00000 100.0000 48.81608 49.59176 111.8864 
91 25.00000 50.00000 75.00000 21.10754 20.56649 58.46993 
92 25.00000 75.00000 75.00000 32.83221 43.37986 61.58819 
93 50.00000 75.00000 75.00000 39.10274 46.61263 61.96749 
94 75.00000 75.00000 75.00000 50.62263 52.53083 62.56392 
95 75.00000 75.00000 100.0000 60.35985 55.51704 112.4826 
96 25.00000 100.0000 50.00000 44.68437 76.83219 33.85852 
97 25.00000 100.0000 75.00000 50.97593 78.69888 66.71856 
98 50.00000 100.0000 75.00000 57.26673 81.90810 67.07070 
99 75.00000 100.0000 75.00000 68.77626 87.77795 67.66758 
100 100.0000 100.0000 75.00000 87.13104 97.17772 68.74958 
101 0.00000 0.00000 100.0000 20.36903 6.030250 106.1645 
102 25.00000 0.00000 100.0000 22.30349 7.015840 106.3066 
103 50.00000 0.00000 100.0000 28.50436 10.18505 106.5993 
104 75.00000 0.00000 100.0000 39.98917 16.04391 107.1430 
105 75.00000 50.00000 100.0000 48.59794 32.64648 109.4219 
106 0.00000 25.00000 100.0000 22.37663 9.910383 106.7427 
107 25.00000 25.00000 100.0000 24.35319 10.94070 106.9253 
108 50.00000 25.00000 100.0000 30.60973 14.14844 107.2277 
109 75.00000 25.00000 100.0000 42.11168 20.03046 107.7579 
110 0.00000 50.00000 75.00000 19.10429 19.46878 58.22541 
111 0.00000 50.00000 100.0000 28.77883 22.38456 108.4306 
112 25.00000 50.00000 100.0000 30.81237 23.51111 108.6119 
113 0.00000 25.00000 50.00000 6.441190 5.190062 23.66355 
114 0.00000 25.00000 75.00000 12.73788 7.074694 56.52279 
115 0.00000 75.00000 75.00000 30.81297 42.26449 61.35407 
116 0.00000 75.00000 100.0000 40.48915 45.20757 111.4975 
117 25.00000 75.00000 100.0000 42.53679 46.34937 111.6809 
118 0.00000 50.00000 50.00000 12.78114 17.51896 25.37342 
119 0.00000 75.00000 50.00000 24.47039 40.30030 28.46742 
120 0.00000 100.0000 75.00000 48.95254 77.64556 66.43611 
121 0.00000 100.0000 100.0000 58.55543 80.47227 116.4501 
122 25.00000 100.0000 100.0000 60.57491 81.52495 116.6026 
123 50.00000 100.0000 100.0000 66.90445 84.75719 116.8978 
124 75.00000 100.0000 100.0000 78.42387 90.64006 117.4432 
125 100.0000 100.0000 100.0000 96.69657 100.0000 118.3923 
END_DATA
