project6/data/ramps_plus.ti1
CTI1   

DESCRIPTOR "Argyll Calibration Target chart information 1"
ORIGINATOR "Argyll targen"
CREATED "Wed Oct 30 19:50:45 2013"
KEYWORD "APPROX_WHITE_POINT"
APPROX_WHITE_POINT "95.106486 100.000000 108.844025"
KEYWORD "COLOR_REP"
COLOR_REP "RGB"
KEYWORD "WHITE_COLOR_PATCHES"
WHITE_COLOR_PATCHES "4"
KEYWORD "BLACK_COLOR_PATCHES"
BLACK_COLOR_PATCHES "4"
KEYWORD "SINGLE_DIM_STEPS"
SINGLE_DIM_STEPS "11"
KEYWORD "COMP_GREY_STEPS"
COMP_GREY_STEPS "11"

NUMBER_OF_FIELDS 7
BEGIN_DATA_FORMAT
SAMPLE_ID RGB_R RGB_G RGB_B XYZ_X XYZ_Y XYZ_Z 
END_DATA_FORMAT

NUMBER_OF_SETS 47
BEGIN_DATA
1 100.000 100.000 100.000 95.1065 100.000 108.844 
2 0.00000 20.0000 0.00000 2.17208 3.34383 1.39070 
3 20.0000 20.0000 20.0000 4.11537 4.27737 4.57015 
4 0.00000 0.00000 0.00000 1.00000 1.00000 1.00000 
5 0.00000 0.00000 90.0000 15.0719 6.62788 75.1183 
6 0.00000 0.00000 100.000 18.8711 8.14731 95.1290 
7 0.00000 0.00000 0.00000 1.00000 1.00000 1.00000 
8 0.00000 0.00000 10.0000 1.17912 1.07164 1.94344 
9 10.0000 10.0000 10.0000 1.94321 1.99226 2.08090 
10 20.0000 0.00000 0.00000 2.35167 1.69693 1.06334 
11 30.0000 0.00000 0.00000 3.99036 2.54184 1.14012 
12 40.0000 0.00000 0.00000 6.42504 3.79717 1.25421 
13 10.0000 0.00000 0.00000 1.40923 1.21100 1.01918 
14 50.0000 0.00000 0.00000 9.73934 5.50603 1.40951 
15 60.0000 0.00000 0.00000 14.0063 7.70610 1.60945 
16 70.0000 0.00000 0.00000 19.2914 10.4311 1.85711 
17 80.0000 0.00000 0.00000 25.6544 13.7119 2.15526 
18 100.000 0.00000 0.00000 41.8302 22.0522 2.91323 
19 90.0000 0.00000 0.00000 33.1502 17.5767 2.50650 
20 100.000 100.000 100.000 95.1065 100.000 108.844 
21 0.00000 30.0000 0.00000 3.59304 6.18536 1.86435 
22 0.00000 40.0000 0.00000 5.70423 10.4071 2.56809 
23 0.00000 50.0000 0.00000 8.57817 16.1542 3.52608 
24 0.00000 60.0000 0.00000 12.2782 23.5533 4.75944 
25 0.00000 70.0000 0.00000 16.8611 32.7178 6.28709 
26 0.00000 80.0000 0.00000 22.3786 43.7513 8.12627 
27 0.00000 90.0000 0.00000 28.8785 56.7492 10.2929 
28 0.00000 0.00000 50.0000 4.82515 2.52982 21.1475 
29 0.00000 0.00000 20.0000 1.59162 1.23661 4.11612 
30 0.00000 0.00000 40.0000 3.37450 1.94965 13.5068 
31 0.00000 0.00000 60.0000 6.69278 3.27675 30.9845 
32 0.00000 0.00000 0.00000 1.00000 1.00000 1.00000 
33 100.000 100.000 100.000 95.1065 100.000 108.844 
34 0.00000 10.0000 0.00000 1.35486 1.70962 1.11829 
35 0.00000 0.00000 0.00000 1.00000 1.00000 1.00000 
36 0.00000 100.000 0.00000 36.4052 71.8005 12.8018 
37 100.000 100.000 100.000 95.1065 100.000 108.844 
38 0.00000 0.00000 70.0000 9.00605 4.20191 43.1687 
39 0.00000 0.00000 80.0000 11.7911 5.31574 57.8376 
40 0.00000 0.00000 30.0000 2.30886 1.52346 7.89391 
41 30.0000 30.0000 30.0000 7.89226 8.25066 8.89838 
42 40.0000 40.0000 40.0000 13.5038 14.1540 15.3291 
43 50.0000 50.0000 50.0000 21.1427 22.1901 24.0831 
44 60.0000 60.0000 60.0000 30.9773 32.5361 35.3534 
45 70.0000 70.0000 70.0000 43.1586 45.3509 49.3129 
46 80.0000 80.0000 80.0000 57.8241 60.7789 66.1192 
47 90.0000 90.0000 90.0000 75.1006 78.9538 85.9177 
END_DATA
CTI1   

DESCRIPTOR "Argyll Calibration Target chart information 1"
ORIGINATOR "Argyll targen"
KEYWORD "DENSITY_EXTREME_VALUES"
DENSITY_EXTREME_VALUES "8"
CREATED "October 30, 2013"

KEYWORD "INDEX"
NUMBER_OF_FIELDS 7
BEGIN_DATA_FORMAT
INDEX RGB_R RGB_G RGB_B XYZ_X XYZ_Y XYZ_Z 
END_DATA_FORMAT

NUMBER_OF_SETS 8
BEGIN_DATA
0 100.000 100.000 100.000 95.1065 100.000 108.844 
1 0.00000 47.3607 100.000 25.6130 21.6292 97.3763 
2 100.000 0.00000 79.3514 52.4258 26.2898 58.7215 
3 0.00000 0.00000 58.9971 6.48583 3.19399 29.8944 
4 100.000 66.6593 0.00000 56.0588 50.5054 7.65614 
5 0.00000 35.6011 0.00000 4.68562 8.37021 2.22855 
6 84.4444 0.00000 0.00000 28.8428 15.3558 2.30466 
7 0.00000 0.00000 0.00000 1.00000 1.00000 1.00000 
END_DATA
CTI1   

DESCRIPTOR "Argyll Calibration Target chart information 1"
ORIGINATOR "Argyll targen"
KEYWORD "DEVICE_COMBINATION_VALUES"
DEVICE_COMBINATION_VALUES "9"
CREATED "October 30, 2013"

KEYWORD "INDEX"
NUMBER_OF_FIELDS 7
BEGIN_DATA_FORMAT
INDEX RGB_R RGB_G RGB_B XYZ_X XYZ_Y XYZ_Z 
END_DATA_FORMAT

NUMBER_OF_SETS 9
BEGIN_DATA
0 100.000 100.000 100.000 95.1065 100.000 108.844 
1 0.00000 100.000 100.000 54.2763 78.9478 106.931 
2 100.000 0.00000 100.000 59.7013 29.1995 97.0422 
3 0.00000 0.00000 100.000 18.8711 8.14731 95.1290 
4 100.000 100.000 0.00000 77.2354 92.8527 14.7151 
5 0.00000 100.000 0.00000 36.4052 71.8005 12.8018 
6 100.000 0.00000 0.00000 41.8302 22.0522 2.91323 
7 0.00000 0.00000 0.00000 1.00000 1.00000 1.00000 
8 50.0000 50.0000 50.0000 21.1427 22.1901 24.0831 
END_DATA
