project6/data/ramps_plus.ti3
CTI3   

DESCRIPTOR "Argyll Calibration Target chart information 3"
ORIGINATOR "Argyll dispread"
CREATED "Thu Apr  7 15:16:51 2016"
DEVICE_CLASS "DISPLAY"
SINGLE_DIM_STEPS "11"
COMP_GREY_STEPS "11"
COLOR_REP "RGB_XYZ"
TARGET_INSTRUMENT "X-Rite ColorMunki"
DISPLAY_TYPE_REFRESH "YES"
INSTRUMENT_TYPE_SPECTRAL "YES"
LUMINANCE_XYZ_CDM2 "245.819073 254.942102 297.976863"
NORMALIZED_TO_Y_100 "YES"

NUMBER_OF_FIELDS 7
BEGIN_DATA_FORMAT
SAMPLE_ID RGB_R RGB_G RGB_B XYZ_X XYZ_Y XYZ_Z 
END_DATA_FORMAT

NUMBER_OF_SETS 47
BEGIN_DATA
1 100.0000 100.0000 100.0000 96.42153 100.0000 116.8802 
2 0.00000 20.00000 0.00000 1.450297 2.674784 0.617862 
3 20.00000 20.00000 20.00000 4.852890 5.048743 5.965213 
4 0.00000 0.00000 0.00000 0.191185 0.168350 0.389726 
5 0.00000 0.00000 90.00000 25.06213 7.538571 130.4380 
6 0.00000 0.00000 100.0000 31.56500 9.363431 164.4762 
7 0.00000 0.00000 0.00000 0.191603 0.168836 0.389224 
8 0.00000 0.00000 10.00000 0.423301 0.236310 1.617731 
9 10.00000 10.00000 10.00000 1.197084 1.228082 1.601777 
10 20.00000 0.00000 0.00000 1.690834 0.925433 0.403219 
11 30.00000 0.00000 0.00000 3.797939 2.001315 0.503153 
12 40.00000 0.00000 0.00000 6.678562 3.471247 0.631056 
13 10.00000 0.00000 0.00000 0.559409 0.349129 0.356027 
14 50.00000 0.00000 0.00000 10.77408 5.561495 0.811585 
15 60.00000 0.00000 0.00000 15.92180 8.188616 1.048414 
16 70.00000 0.00000 0.00000 22.46906 11.52614 1.336300 
17 80.00000 0.00000 0.00000 29.92417 15.33310 1.678634 
18 100.0000 0.00000 0.00000 50.11578 25.64020 2.657660 
19 90.00000 0.00000 0.00000 39.20396 20.06278 2.096980 
20 100.0000 100.0000 100.0000 127.6257 132.3764 155.6218 
21 0.00000 30.00000 0.00000 3.922825 7.469520 1.301896 
22 0.00000 40.00000 0.00000 6.865148 13.21043 2.052894 
23 0.00000 50.00000 0.00000 11.09597 21.46384 3.133372 
24 0.00000 60.00000 0.00000 16.35164 31.71860 4.474838 
25 0.00000 70.00000 0.00000 23.04705 44.78092 6.200315 
26 0.00000 80.00000 0.00000 31.21530 60.61498 8.392283 
27 0.00000 90.00000 0.00000 41.02213 79.85563 10.92713 
28 0.00000 0.00000 50.00000 5.982181 1.901987 30.75448 
29 0.00000 0.00000 20.00000 0.976776 0.396974 4.562672 
30 0.00000 0.00000 40.00000 3.734206 1.228431 18.97654 
31 0.00000 0.00000 60.00000 8.811980 2.747587 45.56887 
32 0.00000 0.00000 0.00000 0.170988 0.153117 0.342844 
33 100.0000 100.0000 100.0000 130.4070 135.3286 158.5449 
34 0.00000 10.00000 0.00000 0.584523 0.958759 0.449158 
35 0.00000 0.00000 0.00000 0.170142 0.152022 0.341026 
36 0.00000 100.0000 0.00000 51.72874 100.8410 13.88198 
37 100.0000 100.0000 100.0000 130.4144 135.3326 158.5742 
38 0.00000 0.00000 70.00000 12.40197 3.819557 64.33372 
39 0.00000 0.00000 80.00000 16.54573 5.059346 85.97580 
40 0.00000 0.00000 30.00000 2.129998 0.744652 10.59775 
41 30.00000 30.00000 30.00000 9.829459 10.26751 11.99744 
42 40.00000 40.00000 40.00000 17.50863 18.24738 21.45858 
43 50.00000 50.00000 50.00000 28.45838 29.68301 34.78429 
44 60.00000 60.00000 60.00000 42.03295 43.80644 51.40282 
45 70.00000 70.00000 70.00000 59.22026 61.63138 72.38415 
46 80.00000 80.00000 80.00000 78.86518 82.06955 96.44691 
47 90.00000 90.00000 90.00000 103.1951 107.3403 126.1868 
END_DATA
