project7/data/disp_model_test.ti1
CTI1

COLOR_REP "RGB"
NUMBER_OF_FIELDS 4
BEGIN_DATA_FORMAT
SAMPLE_ID RGB_R RGB_G RGB_B
END_DATA_FORMAT

NUMBER_OF_SETS 30
BEGIN_DATA
1 47.000 29.000 20.000
2 80.000 56.000 38.000
3 41.000 47.000 46.000
4 36.000 41.000 20.000
5 54.000 48.000 52.000
6 46.000 72.000 52.000
7 90.000 46.000 17.000
8 31.000 35.000 48.000
9 80.000 30.000 29.000
10 37.000 22.000 29.000
11 66.000 70.000 21.000
12 97.000 60.000 17.000
13 22.000 25.000 42.000
14 32.000 56.000 22.000
15 73.000 18.000 20.000
16 100.000 75.000 18.000
17 77.000 31.000 43.000
18 0.000 50.000 48.000
19 100.000 93.000 74.000
20 83.000 75.000 60.000
21 67.000 60.000 48.000
22 50.000 46.000 35.000
23 35.000 31.000 24.000
24 22.000 20.000 16.000
25 0.000 0.000 0.000
26 0.000 0.000 0.000
27 0.000 0.000 0.000
28 100.000 100.000 100.000
29 100.000 100.000 100.000
30 100.000 100.000 100.000
END_DATA