project7/data/disp_model_test.ti3
CTI3   

DESCRIPTOR "Argyll Calibration Target chart information 3"
ORIGINATOR "Argyll dispread"
CREATED "Wed May  4 20:04:56 2016"
DEVICE_CLASS "DISPLAY"
COLOR_REP "RGB_XYZ"
TARGET_INSTRUMENT "X-Rite ColorMunki"
DISPLAY_TYPE_REFRESH "YES"
INSTRUMENT_TYPE_SPECTRAL "YES"
LUMINANCE_XYZ_CDM2 "378.866879 392.463863 461.849251"
NORMALIZED_TO_Y_100 "YES"

NUMBER_OF_FIELDS 7
BEGIN_DATA_FORMAT
SAMPLE_ID RGB_R RGB_G RGB_B XYZ_X XYZ_Y XYZ_Z 
END_DATA_FORMAT

NUMBER_OF_SETS 30
BEGIN_DATA
1 47.00000 29.00000 19.00000 10.34991 9.015891 4.215913 
2 80.00000 55.00000 36.00000 35.36623 32.46250 15.25303 
3 41.00000 46.00000 44.00000 15.75395 17.28620 19.79378 
4 36.00000 40.00000 20.00000 9.931653 12.38524 5.117945 
5 54.00000 48.00000 50.00000 21.79798 21.18439 25.68503 
6 46.00000 72.00000 49.00000 29.78209 41.08819 27.24768 
7 90.00000 46.00000 16.00000 37.11453 28.74691 5.576412 
8 31.00000 35.00000 45.00000 10.39577 10.14992 19.51996 
9 80.00000 30.00000 27.00000 26.83743 17.63195 8.312807 
10 37.00000 22.00000 28.00000 7.026065 5.499725 7.417278 
11 66.00000 70.00000 20.00000 33.12178 41.80408 8.734021 
12 97.00000 60.00000 16.00000 47.77969 42.16167 7.239141 
13 22.00000 24.00000 40.00000 6.016820 5.091053 14.90339 
14 32.00000 56.00000 21.00000 14.95015 23.00958 6.935904 
15 73.00000 18.00000 19.00000 19.96641 11.55759 4.327905 
16 100.0000 75.00000 17.00000 58.52099 58.84030 9.581373 
17 77.00000 31.00000 41.00000 26.71741 17.44059 17.27269 
18 0.00000 50.00000 46.00000 12.15459 17.51443 21.10741 
19 100.0000 92.00000 71.00000 79.36560 84.34408 59.98734 
20 83.00000 75.00000 58.00000 51.25159 54.01724 38.38373 
21 67.00000 60.00000 45.00000 31.59066 33.28911 22.38823 
22 50.00000 45.00000 33.00000 16.67884 17.68481 11.80212 
23 35.00000 31.00000 23.00000 7.699217 8.162698 5.619322 
24 22.00000 20.00000 15.00000 3.171282 3.410440 2.506128 
25 0.00000 0.00000 0.00000 0.128663 0.115823 0.258768 
26 0.00000 0.00000 0.00000 0.127271 0.113967 0.258728 
27 0.00000 0.00000 0.00000 0.126585 0.113683 0.256606 
28 100.0000 100.0000 100.0000 96.53548 100.0000 117.6794 
29 100.0000 100.0000 100.0000 96.52421 99.98685 117.6550 
30 100.0000 100.0000 100.0000 96.52995 99.99590 117.6788 
END_DATA
