project7/data/workflow_test_cal.ti1
CTI1

COLOR_REP "RGB"
NUMBER_OF_FIELDS 4
BEGIN_DATA_FORMAT
SAMPLE_ID RGB_R RGB_G RGB_B
END_DATA_FORMAT

NUMBER_OF_SETS 30
BEGIN_DATA
1 48.000 11.000 18.000
2 100.000 24.000 46.000
3 78.000 0.000 67.000
4 47.000 31.000 22.000
5 100.000 0.000 77.000
6 100.000 57.000 78.000
7 92.000 0.000 0.000
8 67.000 0.000 65.000
9 96.000 0.000 24.000
10 50.000 0.000 37.000
11 87.000 69.000 0.000
12 100.000 48.000 0.000
13 50.000 0.000 51.000
14 47.000 47.000 24.000
15 78.000 0.000 0.000
16 100.000 68.000 0.000
17 100.000 0.000 54.000
18 70.000 9.000 67.000
19 100.000 46.000 85.000
20 100.000 38.000 73.000
21 89.000 26.000 57.000
22 63.000 18.000 41.000
23 38.000 9.000 25.000
24 18.000 0.000 14.000
25 0.000 0.000 0.000
26 0.000 0.000 0.000
27 0.000 0.000 0.000
28 100.000 100.000 100.000
29 100.000 100.000 100.000
30 100.000 100.000 100.000
END_DATA