project7/data/workflow_test_uncal.ti3
CTI3   

DESCRIPTOR "Argyll Calibration Target chart information 3"
ORIGINATOR "Argyll dispread"
CREATED "Tue May  3 15:20:22 2016"
DEVICE_CLASS "DISPLAY"
COLOR_REP "RGB_XYZ"
TARGET_INSTRUMENT "X-Rite ColorMunki"
DISPLAY_TYPE_REFRESH "YES"
INSTRUMENT_TYPE_SPECTRAL "YES"
LUMINANCE_XYZ_CDM2 "380.555461 392.968513 457.804686"
NORMALIZED_TO_Y_100 "YES"

NUMBER_OF_FIELDS 7
BEGIN_DATA_FORMAT
SAMPLE_ID RGB_R RGB_G RGB_B XYZ_X XYZ_Y XYZ_Z 
END_DATA_FORMAT

NUMBER_OF_SETS 30
BEGIN_DATA
1 55.00000 0.00000 0.00000 10.20716 5.225102 0.728025 
2 98.00000 20.00000 0.00000 38.48879 21.48952 2.355251 
3 64.00000 25.00000 37.00000 18.81606 12.06812 13.59356 
4 49.00000 29.00000 6.000000 10.83381 9.481252 1.677668 
5 76.00000 15.00000 40.00000 24.48182 12.96197 15.89822 
6 79.00000 55.00000 39.00000 36.18160 33.26087 17.71651 
7 100.0000 0.00000 0.00000 38.67159 19.65205 2.089260 
8 57.00000 0.00000 41.00000 14.05332 6.588913 16.11990 
9 90.00000 0.00000 0.00000 30.62996 15.57646 1.687768 
10 48.00000 0.00000 22.00000 8.284197 4.102036 4.553021 
11 84.00000 54.00000 0.00000 35.99204 32.93071 4.028710 
12 100.0000 24.00000 0.00000 39.98171 22.93741 2.537234 
13 47.00000 0.00000 37.00000 9.490811 4.413005 12.33829 
14 53.00000 47.00000 6.000000 17.02457 19.41829 2.923153 
15 78.00000 0.00000 0.00000 21.95597 11.18101 1.274922 
16 100.0000 47.00000 0.00000 46.08025 34.32474 4.003014 
17 91.00000 0.00000 23.00000 31.92933 16.06416 6.193938 
18 53.00000 35.00000 42.00000 16.51936 13.49943 17.69929 
19 100.0000 53.00000 47.00000 52.33946 39.97504 25.16364 
20 100.0000 42.00000 38.00000 47.07186 32.13513 16.70686 
21 89.00000 34.00000 31.00000 35.08782 23.11196 11.10448 
22 66.00000 26.00000 23.00000 18.26455 12.24151 5.996817 
23 46.00000 19.00000 16.00000 8.450678 5.909224 3.042986 
24 28.00000 13.00000 10.00000 3.231460 2.449250 1.453798 
25 0.00000 0.00000 0.00000 0.125868 0.114436 0.258455 
26 0.00000 0.00000 0.00000 0.125482 0.114057 0.258747 
27 0.00000 0.00000 0.00000 0.125041 0.113678 0.257162 
28 100.0000 100.0000 100.0000 96.84121 100.0000 116.4991 
29 100.0000 100.0000 100.0000 96.84292 100.0024 116.5113 
30 100.0000 100.0000 100.0000 97.34966 100.5675 117.2580 
END_DATA
