project7/data/workflow_test_uncal.ti1
CTI1

COLOR_REP "RGB"
NUMBER_OF_FIELDS 4
BEGIN_DATA_FORMAT
SAMPLE_ID RGB_R RGB_G RGB_B
END_DATA_FORMAT

NUMBER_OF_SETS 30
BEGIN_DATA
1 47.000 29.000 19.000
2 80.000 55.000 36.000
3 41.000 46.000 44.000
4 36.000 40.000 20.000
5 54.000 48.000 50.000
6 46.000 72.000 49.000
7 90.000 46.000 16.000
8 31.000 35.000 45.000
9 80.000 30.000 27.000
10 37.000 22.000 28.000
11 66.000 70.000 20.000
12 97.000 60.000 16.000
13 22.000 24.000 40.000
14 32.000 56.000 21.000
15 73.000 18.000 19.000
16 100.000 75.000 17.000
17 77.000 31.000 41.000
18 0.000 50.000 46.000
19 100.000 92.000 71.000
20 83.000 75.000 58.000
21 67.000 60.000 45.000
22 50.000 45.000 33.000
23 35.000 31.000 23.000
24 22.000 20.000 15.000
25 0.000 0.000 0.000
26 0.000 0.000 0.000
27 0.000 0.000 0.000
28 100.000 100.000 100.000
29 100.000 100.000 100.000
30 100.000 100.000 100.000
END_DATA