project7/data/workflow_test_cal.ti3
CTI3   

DESCRIPTOR "Argyll Calibration Target chart information 3"
ORIGINATOR "Argyll dispread"
CREATED "Thu May  5 10:47:57 2016"
DEVICE_CLASS "DISPLAY"
COLOR_REP "RGB_XYZ"
TARGET_INSTRUMENT "X-Rite ColorMunki"
DISPLAY_TYPE_REFRESH "YES"
INSTRUMENT_TYPE_SPECTRAL "YES"
LUMINANCE_XYZ_CDM2 "380.581215 394.696033 461.419116"
NORMALIZED_TO_Y_100 "YES"

NUMBER_OF_FIELDS 7
BEGIN_DATA_FORMAT
SAMPLE_ID RGB_R RGB_G RGB_B XYZ_X XYZ_Y XYZ_Z 
END_DATA_FORMAT

NUMBER_OF_SETS 30
BEGIN_DATA
1 33.00000 26.00000 30.00000 7.128871 6.442792 8.792762 
2 64.00000 50.00000 50.00000 27.06128 25.21716 26.15533 
3 26.00000 37.00000 55.00000 12.02570 11.44994 29.73652 
4 24.00000 31.00000 27.00000 6.135285 7.386366 7.356115 
5 37.00000 38.00000 61.00000 15.96993 13.66238 37.31146 
6 24.00000 57.00000 58.00000 19.22598 24.85613 34.84705 
7 60.00000 34.00000 24.00000 16.85929 13.91935 6.521105 
8 16.00000 22.00000 51.00000 7.005207 4.883552 24.45366 
9 57.00000 24.00000 33.00000 14.52924 9.656699 10.72525 
10 22.00000 16.00000 31.00000 3.988550 2.968640 8.790396 
11 38.00000 53.00000 27.00000 15.46473 21.46443 9.173214 
12 57.00000 42.00000 24.00000 17.73009 17.34698 7.002676 
13 13.00000 16.00000 43.00000 4.685303 2.996513 17.21083 
14 14.00000 38.00000 25.00000 6.493019 9.952242 6.768135 
15 48.00000 13.00000 21.00000 8.701457 5.122584 4.539760 
16 63.00000 55.00000 24.00000 25.10284 27.67948 8.309464 
17 49.00000 19.00000 40.00000 11.69451 7.110317 15.09116 
18 0.00000 30.00000 45.00000 6.516206 6.891974 19.02306 
19 66.00000 72.00000 32.00000 35.64788 44.88026 14.91543 
20 49.00000 53.00000 58.00000 23.59130 24.66788 34.77803 
21 32.00000 36.00000 42.00000 10.57922 10.85030 17.29198 
22 22.00000 25.00000 29.00000 4.952006 5.162527 8.040831 
23 15.00000 17.00000 21.00000 2.451743 2.470896 4.310272 
24 11.00000 13.00000 17.00000 1.525238 1.527147 2.781844 
25 0.00000 0.00000 0.00000 0.128649 0.117125 0.257282 
26 0.00000 0.00000 0.00000 0.128286 0.116566 0.256629 
27 0.00000 0.00000 0.00000 0.128162 0.116326 0.256558 
28 100.0000 100.0000 100.0000 96.42388 100.0000 116.9049 
29 100.0000 100.0000 100.0000 96.41994 99.99640 116.8966 
30 100.0000 100.0000 100.0000 96.42305 99.99856 116.9120 
END_DATA
