project7/disp_model_test.ti3
CTI3   

DESCRIPTOR "Argyll Calibration Target chart information 3"
ORIGINATOR "Argyll dispread"
CREATED "Tue May  3 09:54:46 2016"
DEVICE_CLASS "DISPLAY"
COLOR_REP "RGB_XYZ"
TARGET_INSTRUMENT "X-Rite ColorMunki"
DISPLAY_TYPE_REFRESH "YES"
INSTRUMENT_TYPE_SPECTRAL "YES"
LUMINANCE_XYZ_CDM2 "395.794046 410.796303 475.132282"
NORMALIZED_TO_Y_100 "YES"

NUMBER_OF_FIELDS 7
BEGIN_DATA_FORMAT
SAMPLE_ID RGB_R RGB_G RGB_B XYZ_X XYZ_Y XYZ_Z 
END_DATA_FORMAT

NUMBER_OF_SETS 30
BEGIN_DATA
1 55.00000 0.00000 0.00000 9.741309 4.991053 0.684574 
2 98.00000 20.00000 0.00000 36.65578 20.45727 2.200973 
3 65.00000 24.00000 37.00000 18.09622 11.27982 12.41325 
4 49.00000 29.00000 6.000000 10.38480 9.072922 1.593140 
5 77.00000 15.00000 40.00000 24.02889 12.71086 15.03946 
6 79.00000 55.00000 39.00000 34.79318 31.92715 16.80198 
7 100.0000 0.00000 0.00000 37.86634 19.27214 2.020696 
8 57.00000 0.00000 41.00000 13.55428 6.352975 15.40253 
9 90.00000 0.00000 0.00000 29.74945 15.14922 1.621011 
10 49.00000 0.00000 22.00000 8.391991 4.158213 4.369525 
11 84.00000 54.00000 0.00000 35.06588 31.98034 3.889203 
12 100.0000 23.00000 0.00000 39.73412 22.61253 2.456905 
13 47.00000 0.00000 37.00000 9.239628 4.292279 11.92553 
14 53.00000 46.00000 7.000000 16.04547 17.92616 2.840649 
15 78.00000 0.00000 0.00000 21.37646 10.89268 1.214868 
16 100.0000 47.00000 0.00000 45.39937 33.62532 3.874074 
17 91.00000 0.00000 23.00000 31.42491 15.82463 5.993989 
18 53.00000 35.00000 42.00000 15.99700 13.05974 17.00765 
19 100.0000 53.00000 47.00000 51.54178 39.16143 24.22308 
20 100.0000 42.00000 38.00000 46.41695 31.54214 16.01690 
21 89.00000 33.00000 31.00000 34.05163 22.04703 10.56476 
22 66.00000 25.00000 24.00000 17.68401 11.65360 5.950900 
23 47.00000 18.00000 17.00000 8.570388 5.781366 3.119917 
24 28.00000 13.00000 11.00000 3.168463 2.379712 1.544337 
25 0.00000 0.00000 0.00000 0.117864 0.105724 0.249163 
26 0.00000 0.00000 0.00000 0.121874 0.108603 0.264486 
27 0.00000 0.00000 0.00000 0.122934 0.109470 0.262027 
28 100.0000 100.0000 100.0000 96.34801 100.0000 115.6613 
29 100.0000 100.0000 100.0000 96.30887 99.98368 115.7255 
30 100.0000 100.0000 100.0000 96.21244 99.91530 115.6169 
END_DATA
