project7/workflow_test_uncal.ti1
CTI1

COLOR_REP "RGB"
NUMBER_OF_FIELDS 4
BEGIN_DATA_FORMAT
SAMPLE_ID RGB_R RGB_G RGB_B
END_DATA_FORMAT

NUMBER_OF_SETS 30
BEGIN_DATA
1 55.000 0.000 0.000
2 98.000 20.000 0.000
3 65.000 24.000 37.000
4 49.000 29.000 6.000
5 77.000 15.000 40.000
6 79.000 55.000 39.000
7 100.000 0.000 0.000
8 57.000 0.000 41.000
9 90.000 0.000 0.000
10 49.000 0.000 22.000
11 84.000 54.000 0.000
12 100.000 23.000 0.000
13 47.000 0.000 37.000
14 53.000 46.000 7.000
15 78.000 0.000 0.000
16 100.000 47.000 0.000
17 91.000 0.000 23.000
18 53.000 35.000 42.000
19 100.000 53.000 47.000
20 100.000 42.000 38.000
21 89.000 33.000 31.000
22 66.000 25.000 24.000
23 47.000 18.000 17.000
24 28.000 13.000 11.000
25 0.000 0.000 0.000
26 0.000 0.000 0.000
27 0.000 0.000 0.000
28 100.000 100.000 100.000
29 100.000 100.000 100.000
30 100.000 100.000 100.000
END_DATA