project6/cube.ti3
CTI3   

DESCRIPTOR "Argyll Calibration Target chart information 3"
ORIGINATOR "Argyll dispread"
CREATED "Wed Apr 20 20:34:54 2016"
DEVICE_CLASS "DISPLAY"
MULTI_DIM_STEPS "5"
COLOR_REP "RGB_XYZ"
TARGET_INSTRUMENT "X-Rite ColorMunki"
DISPLAY_TYPE_REFRESH "YES"
INSTRUMENT_TYPE_SPECTRAL "YES"
LUMINANCE_XYZ_CDM2 "170.780950 179.127726 213.138716"
NORMALIZED_TO_Y_100 "YES"

NUMBER_OF_FIELDS 7
BEGIN_DATA_FORMAT
SAMPLE_ID RGB_R RGB_G RGB_B XYZ_X XYZ_Y XYZ_Z 
END_DATA_FORMAT

NUMBER_OF_SETS 125
BEGIN_DATA
1 0.00000 0.00000 0.00000 0.134523 0.128258 0.255422 
2 25.00000 0.00000 0.00000 1.873930 1.052333 0.300151 
3 50.00000 0.00000 0.00000 8.584044 4.618325 0.465091 
4 75.00000 0.00000 0.00000 21.96318 11.71071 0.705690 
5 100.0000 0.00000 0.00000 40.04286 21.20325 0.794884 
6 100.0000 75.00000 100.0000 79.05287 67.59494 116.5869 
7 0.00000 25.00000 0.00000 1.588004 3.301961 0.630931 
8 50.00000 25.00000 0.00000 10.22267 7.901226 0.848887 
9 75.00000 25.00000 0.00000 23.69897 15.04843 1.098863 
10 100.0000 25.00000 0.00000 41.52432 24.41806 1.194311 
11 100.0000 50.00000 25.00000 48.19564 36.60683 9.069056 
12 25.00000 50.00000 0.00000 8.703083 15.77601 2.023870 
13 50.00000 50.00000 0.00000 15.60338 19.45485 2.192054 
14 75.00000 50.00000 0.00000 29.12392 26.63659 2.450907 
15 100.0000 50.00000 0.00000 46.85909 35.97534 2.527258 
16 100.0000 75.00000 25.00000 59.07244 59.69377 11.60884 
17 0.00000 50.00000 0.00000 6.884908 14.77263 1.971913 
18 50.00000 75.00000 0.00000 26.39812 42.32624 4.694840 
19 75.00000 75.00000 0.00000 39.94913 49.52597 4.952005 
20 100.0000 75.00000 0.00000 57.61519 58.84230 5.033100 
21 25.00000 75.00000 0.00000 19.46107 38.61911 4.531023 
22 25.00000 100.0000 0.00000 36.55529 72.50181 7.379648 
23 50.00000 100.0000 0.00000 43.61976 76.25237 7.550022 
24 75.00000 100.0000 0.00000 57.26403 83.48671 7.782024 
25 100.0000 100.0000 0.00000 74.63521 92.61700 7.874832 
26 0.00000 0.00000 25.00000 1.255950 0.457248 6.295659 
27 25.00000 0.00000 25.00000 3.046742 1.403607 6.515270 
28 50.00000 0.00000 25.00000 9.806537 4.993889 6.736590 
29 75.00000 0.00000 25.00000 23.19615 12.09031 7.029300 
30 100.0000 0.00000 25.00000 41.25403 21.56376 7.278177 
31 100.0000 0.00000 75.00000 52.39277 25.03560 67.08870 
32 75.00000 50.00000 75.00000 41.57316 30.88332 67.98908 
33 50.00000 25.00000 25.00000 11.46766 8.350167 7.154554 
34 75.00000 25.00000 25.00000 24.95795 15.49967 7.435324 
35 100.0000 25.00000 25.00000 42.76786 24.85419 7.702678 
36 100.0000 75.00000 50.00000 63.25984 61.08201 33.84250 
37 100.0000 75.00000 75.00000 70.35229 63.44546 71.59225 
38 50.00000 50.00000 25.00000 16.93693 20.10560 8.530003 
39 75.00000 50.00000 25.00000 30.47681 27.29532 8.828587 
40 25.00000 25.00000 0.00000 3.389712 4.279084 0.676033 
41 25.00000 50.00000 25.00000 10.01890 16.42516 8.307639 
42 25.00000 75.00000 25.00000 20.87215 39.46285 10.82965 
43 50.00000 75.00000 25.00000 27.84188 43.17752 11.05694 
44 75.00000 75.00000 25.00000 41.39957 50.37208 11.35127 
45 75.00000 75.00000 50.00000 45.54405 51.75600 33.17826 
46 0.00000 100.0000 0.00000 34.68515 71.49565 7.288858 
47 25.00000 100.0000 25.00000 37.77897 72.89090 13.69592 
48 50.00000 100.0000 25.00000 44.83061 76.61229 13.87284 
49 75.00000 100.0000 25.00000 58.49427 83.85650 14.17367 
50 100.0000 100.0000 25.00000 75.83957 92.96226 14.42149 
51 100.0000 100.0000 50.00000 80.01288 94.23631 36.75096 
52 25.00000 0.00000 50.00000 7.027880 2.601607 27.91349 
53 50.00000 0.00000 50.00000 13.82068 6.203004 28.29604 
54 75.00000 0.00000 50.00000 27.23082 13.30121 28.71776 
55 100.0000 0.00000 50.00000 45.35765 22.79702 29.42164 
56 100.0000 0.00000 100.0000 60.80840 28.65041 111.8680 
57 100.0000 50.00000 100.0000 67.97943 44.20821 113.6786 
58 50.00000 25.00000 50.00000 15.50066 9.586340 28.75380 
59 75.00000 25.00000 50.00000 29.02872 16.75477 29.20372 
60 100.0000 25.00000 50.00000 46.90192 26.12883 29.90418 
61 100.0000 25.00000 100.0000 62.36048 32.06021 112.2430 
62 25.00000 50.00000 50.00000 14.05529 17.71934 29.77554 
63 50.00000 50.00000 50.00000 21.02231 21.42733 30.16584 
64 75.00000 50.00000 50.00000 34.57110 28.60760 30.60197 
65 100.0000 50.00000 50.00000 52.35644 37.94965 31.30325 
66 100.0000 50.00000 75.00000 59.40889 40.25666 69.00474 
67 25.00000 75.00000 50.00000 24.95008 40.81736 32.33615 
68 50.00000 75.00000 50.00000 31.94728 44.53845 32.72110 
69 0.00000 75.00000 0.00000 17.61432 37.57734 4.455019 
70 0.00000 75.00000 25.00000 18.96898 38.38550 10.58728 
71 0.00000 100.0000 25.00000 35.83550 71.83612 13.42490 
72 0.00000 100.0000 50.00000 39.75449 73.01450 34.47413 
73 50.00000 100.0000 50.00000 48.90160 77.84578 35.62651 
74 75.00000 100.0000 50.00000 62.55547 85.05795 36.00375 
75 0.00000 0.00000 50.00000 5.142585 1.625720 27.19031 
76 0.00000 0.00000 75.00000 11.96330 3.776814 63.86010 
77 25.00000 0.00000 75.00000 13.93275 4.785508 64.96991 
78 50.00000 0.00000 75.00000 20.74054 8.389081 65.44295 
79 75.00000 0.00000 75.00000 34.19381 15.51681 66.01633 
80 25.00000 25.00000 25.00000 4.601298 4.706065 6.940276 
81 25.00000 25.00000 50.00000 8.604592 5.931792 28.39293 
82 25.00000 25.00000 75.00000 15.51708 8.133934 65.49442 
83 50.00000 25.00000 75.00000 22.46350 11.82114 65.99519 
84 75.00000 25.00000 75.00000 36.00047 18.98302 66.52741 
85 100.0000 25.00000 75.00000 53.89173 28.35629 67.56274 
86 0.00000 25.00000 25.00000 2.758880 3.728580 6.711384 
87 0.00000 50.00000 25.00000 8.160447 15.41486 8.084186 
88 50.00000 50.00000 75.00000 27.99151 23.70044 67.39606 
89 50.00000 50.00000 100.0000 36.77759 27.72861 113.2857 
90 50.00000 75.00000 100.0000 47.85126 51.12686 115.8586 
91 25.00000 50.00000 75.00000 21.00727 19.99126 66.87978 
92 25.00000 75.00000 75.00000 31.91684 43.12617 69.43534 
93 50.00000 75.00000 75.00000 38.95534 46.87510 69.95176 
94 75.00000 75.00000 75.00000 52.54128 54.07170 70.48568 
95 75.00000 75.00000 100.0000 61.41330 58.32339 116.0848 
96 25.00000 100.0000 50.00000 41.75288 74.04341 35.17437 
97 25.00000 100.0000 75.00000 48.66685 76.23457 72.33642 
98 50.00000 100.0000 75.00000 55.82075 80.00425 72.87076 
99 75.00000 100.0000 75.00000 69.51180 87.24995 73.41934 
100 100.0000 100.0000 75.00000 86.94716 96.37435 74.44363 
101 0.00000 0.00000 100.0000 20.85788 7.540199 111.3532 
102 25.00000 0.00000 100.0000 22.62974 8.479822 111.3870 
103 50.00000 0.00000 100.0000 29.41810 12.09818 111.5574 
104 75.00000 0.00000 100.0000 42.79886 19.18457 111.7770 
105 75.00000 50.00000 100.0000 50.32883 34.91271 113.6068 
106 0.00000 25.00000 100.0000 22.41222 10.93771 111.7473 
107 25.00000 25.00000 100.0000 24.23468 11.91959 111.7721 
108 50.00000 25.00000 100.0000 31.14019 15.59478 111.9423 
109 75.00000 25.00000 100.0000 44.64950 22.75968 112.1993 
110 0.00000 50.00000 75.00000 18.96197 18.90842 65.75151 
111 0.00000 50.00000 100.0000 27.98178 22.99333 113.1421 
112 25.00000 50.00000 100.0000 29.86514 24.04634 113.2314 
113 0.00000 25.00000 50.00000 6.673962 4.932286 27.66995 
114 0.00000 25.00000 75.00000 13.50496 7.100187 64.37421 
115 0.00000 75.00000 75.00000 29.86235 42.00814 68.36046 
116 0.00000 75.00000 100.0000 38.96485 46.29976 115.6883 
117 25.00000 75.00000 100.0000 40.85152 47.35725 115.7263 
118 0.00000 50.00000 50.00000 12.09711 16.66876 29.05894 
119 0.00000 75.00000 50.00000 22.95233 39.70336 31.60444 
120 0.00000 100.0000 75.00000 46.56562 75.10657 71.23156 
121 0.00000 100.0000 100.0000 55.45397 78.93133 118.4262 
122 25.00000 100.0000 100.0000 57.34419 79.93453 118.4636 
123 50.00000 100.0000 100.0000 64.46163 83.71806 118.6406 
124 75.00000 100.0000 100.0000 78.11162 90.95025 118.8831 
125 100.0000 100.0000 100.0000 95.34032 100.0000 118.9870 
END_DATA
