project6/ramps_plus.ti3
CTI3   

DESCRIPTOR "Argyll Calibration Target chart information 3"
ORIGINATOR "Argyll dispread"
CREATED "Wed Apr 20 20:25:00 2016"
DEVICE_CLASS "DISPLAY"
SINGLE_DIM_STEPS "11"
COMP_GREY_STEPS "11"
COLOR_REP "RGB_XYZ"
TARGET_INSTRUMENT "X-Rite ColorMunki"
DISPLAY_TYPE_REFRESH "YES"
INSTRUMENT_TYPE_SPECTRAL "YES"
LUMINANCE_XYZ_CDM2 "285.515014 298.473558 358.246692"
NORMALIZED_TO_Y_100 "YES"

NUMBER_OF_FIELDS 7
BEGIN_DATA_FORMAT
SAMPLE_ID RGB_R RGB_G RGB_B XYZ_X XYZ_Y XYZ_Z 
END_DATA_FORMAT

NUMBER_OF_SETS 47
BEGIN_DATA
1 100.0000 100.0000 100.0000 95.65839 100.0000 120.0263 
2 0.00000 20.00000 0.00000 1.038729 2.094934 0.497805 
3 20.00000 20.00000 20.00000 2.931319 2.970490 4.583183 
4 0.00000 0.00000 0.00000 0.140130 0.133889 0.267918 
5 0.00000 0.00000 90.00000 18.31535 5.865596 97.59527 
6 0.00000 0.00000 100.0000 21.13664 7.504267 112.3962 
7 0.00000 0.00000 0.00000 0.141323 0.135450 0.269314 
8 0.00000 0.00000 10.00000 0.267875 0.173832 0.937756 
9 10.00000 10.00000 10.00000 0.604886 0.605087 0.992981 
10 20.00000 0.00000 0.00000 1.236589 0.720216 0.303973 
11 30.00000 0.00000 0.00000 3.192528 1.759992 0.357152 
12 40.00000 0.00000 0.00000 5.650637 3.069606 0.429680 
13 10.00000 0.00000 0.00000 0.327091 0.235375 0.277853 
14 50.00000 0.00000 0.00000 9.186363 4.947802 0.512749 
15 60.00000 0.00000 0.00000 13.70658 7.347283 0.615414 
16 70.00000 0.00000 0.00000 19.27624 10.29918 0.711490 
17 80.00000 0.00000 0.00000 25.85177 13.77767 0.802934 
18 100.0000 0.00000 0.00000 40.03484 21.21914 0.843254 
19 90.00000 0.00000 0.00000 32.85658 17.47209 0.864575 
20 100.0000 100.0000 100.0000 95.49999 99.85372 119.5857 
21 0.00000 30.00000 0.00000 2.626458 5.543370 0.913880 
22 0.00000 40.00000 0.00000 4.558898 9.745366 1.392215 
23 0.00000 50.00000 0.00000 7.380002 15.82488 2.098252 
24 0.00000 60.00000 0.00000 11.04028 23.67367 2.975120 
25 0.00000 70.00000 0.00000 15.74521 33.65619 4.036063 
26 0.00000 80.00000 0.00000 21.23055 45.10714 5.195235 
27 0.00000 90.00000 0.00000 27.70360 58.23289 6.404198 
28 0.00000 0.00000 50.00000 5.648480 1.752306 29.76551 
29 0.00000 0.00000 20.00000 0.887073 0.353529 4.251379 
30 0.00000 0.00000 40.00000 3.638255 1.153817 19.00209 
31 0.00000 0.00000 60.00000 8.054349 2.479567 42.65015 
32 0.00000 0.00000 0.00000 0.142565 0.136571 0.269065 
33 100.0000 100.0000 100.0000 95.46760 99.78176 119.5844 
34 0.00000 10.00000 0.00000 0.296407 0.470413 0.308418 
35 0.00000 0.00000 0.00000 0.143554 0.137359 0.270171 
36 0.00000 100.0000 0.00000 34.59153 71.23630 7.269513 
37 100.0000 100.0000 100.0000 95.35400 99.67814 119.5762 
38 0.00000 0.00000 70.00000 11.09158 3.423605 58.91320 
39 0.00000 0.00000 80.00000 14.58718 4.559838 77.63588 
40 0.00000 0.00000 30.00000 2.123117 0.709784 10.88630 
41 30.00000 30.00000 30.00000 7.812071 7.856178 12.00283 
42 40.00000 40.00000 40.00000 13.89054 14.03786 20.83077 
43 50.00000 50.00000 50.00000 22.44237 22.76973 32.73271 
44 60.00000 60.00000 60.00000 33.26792 33.98762 46.97179 
45 70.00000 70.00000 70.00000 46.87795 48.13752 65.03444 
46 80.00000 80.00000 80.00000 62.39232 64.19814 84.92887 
47 90.00000 90.00000 90.00000 79.37502 82.09421 105.5178 
END_DATA
